!!!OTL: 37. Sehnsucht nach dem Rhein.
!!!COM: Schmitt v. Trier
!!!ODT: 1842
!!!ARE: Europa, Mitteleuropa, Deutschland
!!!SCT: B0037
!!!TXL: @@DE
!!!YEM: Copyright 1995, estate of Helmut Schaffrath.
**kern	**text
*ICvox	*
*Ivox	*
*M4/4	*
*met(c)	*
*clefG2	*
*k[b-e-]	*
*B-:	*
{8r	.
8f	Dort
8dd	wo
8cc	der
=1	=1
4.b-	al-
8b-	-te
8cc	Rhein
8b-	mit
8a	ſei-
8g	-nen
=2	=2
8fL	Wel-
8dJ	.
4f	-len
8r}	.
{8f	ſo
8g	man-
8a	-cher
=3	=3
4.b-	Burg
8b-	be-
8dd	-moo-
8b-	-ſte
8a	Trüm-
8b-	-mer
=4	=4
2cc	grüßt
8r}	.
{8f	dort
8cc	wo
8b-	die
=5	=5
4.a	blau-
8g	-en
8f#	Trau-
8a	-ben
8.dd	ſaf-
16a	-tig
=6	=6
8ccL	ſchwel-
8b-J	.
4b-	-len
8r}	.
{8g	und
8a	fri-
8b-	-ſcher
=7	=7
4.cc	Moſt
16aL	des
16fJ	.
8c	Win-
8b-/	-ʒers
8a	Müh
8g	ver-
=8	=8
4f	-ſüßt
4r	.
8r}	.
{8f	Dort
8d	möcht
8f	ich
=9	=9
4b-	ſein
4r	.
8r	.
8b-	dort
8f	möcht
8b-	ich
=10	=10
4dd	ſein,
4r	.
4r}	.
{4dd	bei
=11	=11
4.dd	dir
8dd	du
4cc	Va-
4dd	-ter
=12	=12
2ee-	Rhein
8r}	.
{8ee-	auf
8dd	dei-
8cc	-nen
=13	=13
4.b-	Bergen
8f	.
4dd	möcht
4cc	ich
=14	=14
2b-	ſein!
8r}	.
{8f	Dort
8d	möcht
8f	ich
=15	=15
4b-	ſein
4r	.
8r	.
8b-	dort
8f	möcht
8b-	ich
=16	=16
4dd	ſein,
4r	.
4r}	.
{4dd	bei
=17	=17
4.dd	dir
8dd	du
4cc	Va-
4dd	-ter
=18	=18
2ee-	Rhein
8r}	.
{8ee-	auf
8dd	dei-
8cc	-nen
=19	=19
4.b-	Bergen
8f	.
4dd	möcht
4cc	ich
=20	=20
2b-}	ſein!
==	==
!!!AGN: politisch, national, Vaterlands - Lied
!!!GTL: Vaterlandslieder und Heimathgrüße
!!!ONB: ESAC (Essen Associative Code) Database: BOEHME
!!!AMT: simple quadruple
!!!AIN: vox
!!!EED: Helmut Schaffrath
!!!EEV: 1.0
!!@@COMMENT:"Gedicht und Musik von Georg Schmitt v. Trier, 1842 erschienen bei P. Schottes Soehnen in Mainz. "
!!@@END:
!!Text: Georg Schmitt v. Trier
!!!URL-scan: https://archive.org/details/BoehmeVtLieder1895/page/n55/mode/2up
!!!ENC: Anna Maria Matuszewska
!!!EEV: 2024/14/06
*-	*-
